src/lib/packages/icons/src/assets/line/image-minus.svg

<svg width="24" height="24" viewBox="0 0 24 24" fill="none" xmlns="http://www.w3.org/2000/svg">
<path d="M21 10.25C20.586 10.25 20.25 10.586 20.25 11V13.189L16.24 9.17993C15.58 8.51893 14.42 8.51893 13.76 9.17993L9 13.939L8.23999 13.1799C7.57999 12.5189 6.42001 12.5189 5.76001 13.1799L3.75 15.1899V7C3.75 5.423 4.423 4.75 6 4.75H13C13.414 4.75 13.75 4.414 13.75 4C13.75 3.586 13.414 3.25 13 3.25H6C3.582 3.25 2.25 4.582 2.25 7V17C2.25 19.418 3.582 20.75 6 20.75H18C20.418 20.75 21.75 19.418 21.75 17V11C21.75 10.586 21.414 10.25 21 10.25ZM18 19.25H6C4.528 19.25 3.85197 18.654 3.76697 17.293L6.81995 14.24C6.94695 14.114 7.05196 14.114 7.17896 14.24L8.11804 15.179C8.58504 15.647 9.41403 15.646 9.87903 15.179L14.819 10.239C14.946 10.113 15.051 10.113 15.178 10.239L20.248 15.3091V17C20.25 18.577 19.577 19.25 18 19.25ZM8 7.75C8.69 7.75 9.25 8.31 9.25 9C9.25 9.69 8.69 10.25 8 10.25C7.31 10.25 6.75 9.69 6.75 9C6.75 8.31 7.31 7.75 8 7.75ZM16.25 5C16.25 4.586 16.586 4.25 17 4.25H21C21.414 4.25 21.75 4.586 21.75 5C21.75 5.414 21.414 5.75 21 5.75H17C16.586 5.75 16.25 5.414 16.25 5Z" fill="currentColor"/>
</svg>

<svg xmlns="http://www.w3.org/2000/svg" width="24" height="24" fill="none"><path fill="currentColor" d="M21 10.25a.75.75 0 0 0-.75.75v2.189l-4.01-4.01c-.66-.66-1.82-.66-2.48 0L9 13.94l-.76-.76c-.66-.66-1.82-.66-2.48 0l-2.01 2.01V7c0-1.577.673-2.25 2.25-2.25h7a.75.75 0 0 0 0-1.5H6C3.582 3.25 2.25 4.582 2.25 7v10c0 2.418 1.332 3.75 3.75 3.75h12c2.418 0 3.75-1.332 3.75-3.75v-6a.75.75 0 0 0-.75-.75Zm-3 9H6c-1.472 0-2.148-.596-2.233-1.957L6.82 14.24c.127-.126.232-.126.359 0l.939.939c.467.468 1.296.467 1.761 0l4.94-4.94c.127-.126.232-.126.359 0l5.07 5.07V17c.002 1.577-.671 2.25-2.248 2.25ZM8 7.75a1.25 1.25 0 1 1 0 2.5 1.25 1.25 0 0 1 0-2.5ZM16.25 5a.75.75 0 0 1 .75-.75h4a.75.75 0 0 1 0 1.5h-4a.75.75 0 0 1-.75-.75Z"/></svg>
